X: 6
T: Hodie nobis cycle-Hodie nobis
N: Derived from Com2002a-Hodie_nobis_cycle-Hodie_nobis.krn
C: Loyset Comp\`ere
%%abc-version 2.0
%%abcx-abcm2ps-target-version 5.9.1 (29 Sep 2008)
%%abc-creator hum2abc beta
%%abcx-conversion-date 2019/02/16 20:28:09
%%abc-edited-by Jesse Rodin
%%abc-edited-by Clare Bokulich
%%abcx-initial-encoding-date 2016/04/06/
%%humdrum-veritas 1981171606
%%humdrum-veritas-data 125028279
%%linebreak <none>
%%barnumbers 0
L: 1/4
M: 3/1
Q: 1/2=120
%%staves [1 2 3 4]
V: 1 clef=treble
V: 2 clef=treble-8
V: 3 clef=treble-8
V: 4 clef=bass
K: F
[V:1] G8F4 | 
[V:2] d8f4- | 
[V:3] G8A4 | 
[V:4] G,8D,4 | 
[V:1] G4A6GA | 
[V:2] f12 | 
[V:3] B4c8 | 
[V:4] G,4F,8 | 
[V:1] B8A4 | 
[V:2] f8f4 | 
[V:3] d8c4 | 
[V:4] B,,8F,4 | 
[V:1] G2A3GG4^F2 | 
[V:2] d2f3ed3cd2 | 
[V:3] B2c2d2B2A4 | 
[V:4] G,2F,2D,2G,2D,4 | 
[V:1] G4z4G4 | 
[V:2] B2_e3dd4c2 | 
[V:3] G4z4G4 | 
[V:4] z2G,4F,2E,4 | 
[V:1] F6B3A/G/A2 | 
[V:2] d2c4f4e2 | 
[V:3] A6B2c4 | 
[V:4] D,2F,4E,D,C,4 | 
[V:1] B4A2A4GF | 
[V:2] f8z2F2 | 
[V:3] d4c4A2B2 | 
[V:4] B,,4z2F,4E,D, | 
[V:1] E4D2F2G3A | 
[V:2] G2A2B8 | 
[V:3] c4d4G4 | 
[V:4] C,4B,,4_E,4 | 
[V:1] B2A3GG4^F2 | 
[V:2] f4d2e2d4 | 
[V:3] d2c2B2c2A4 | 
[V:4] D,2F,2G,2C,2D,4 | 
[V:1] G8z4 | 
[V:2] d8z4 | 
[V:3] G12 | 
[V:4] z4G,,6B,,2 | 
[V:1] z12 | 
[V:2] z12 | 
[V:3] z2G2G2B2A2G2 | 
[V:4] A,,2G,,2B,,4C,4 | 
[V:1] z12 | 
[V:2] z12 | 
[V:3] B4c4d3d | 
[V:4] D,4z2C,2G,2G,2 | 
[V:1] z12 | 
[V:2] z12 | 
[V:3] d2c2B2A3GG2- | 
[V:4] F,3E,D,2C,2D,2B,,2 | 
[V:1] z12 | 
[V:2] z12 | 
[V:3] G2^F2G4z2d2 | 
[V:4] A,,4G,,8 | 
[V:1] z12 | 
[V:2] z12 | 
[V:3] d2A2c2c2G2G2 | 
[V:4] D,2D,2A,,2C,2C,2G,,2 | 
[V:1] z12 | 
[V:2] z12 | 
[V:3] B3AF2F2[M:2/1](3:2:2B4c2 | 
[V:4] G,,2B,,3A,,F,,2z2F,,2 | 
[V:1] [M:9/2]z6z6z6 | 
[V:2] [M:9/2]z6z6z6 | 
[V:3] [M:9/2]d4c2B2A3GG2E2^F2 | 
[V:4] B,,4C,2D,4C,2B,,2A,,4 | 
[V:1] z6z6z6 | 
[V:2] d4e2f4e2d2c3B | 
[V:3] G6z6z6 | 
[V:4] G,,6D,4E,2F,4E,2 | 
[V:1] z6z6z6 | 
[V:2] B2G2A2B6z6 | 
[V:3] z2z2z2z2z2z2A4A2 | 
[V:4] D,2C,4B,,6C,4C,2 | 
[V:1] z6z6z6 | 
[V:2] z6z6z6 | 
[V:3] B2A3GG4^F2G6 | 
[V:4] D,4C,2B,,2A,,4G,,4G,2 | 
[V:1] A4A2B4A2G3E^F2 | 
[V:2] f4f2f4f2d4d2 | 
[V:3] c4c2d4c2B2A4 | 
[V:4] F,4F,2B,,4F,2G,2D,4 | 
[V:1] G4G2B3cd2G3AB2 | 
[V:2] B3cd2G3AB2c4B2 | 
[V:3] G6z6z6 | 
[V:4] G,,6z6z6 | 
[V:1] c4B2A2G3FF4E2 | 
[V:2] A4G2c4A2B2G4 | 
[V:3] z6z6z6 | 
[V:4] z6z6z6 | 
[V:1] F6z6z6 | 
[V:2] F6z6z6 | 
[V:3] c3Bc2A4G2c4B2 | 
[V:4] z2z2z2C,3B,,C,2A,,4G,,2 | 
[V:1] z18 | 
[V:2] z2z2z2z2z2z2B4G2 | 
[V:3] G2A3GG4^F2G6 | 
[V:4] C,4B,,2G,,2A,,4G,,6 | 
[V:1] z18 | 
[V:2] d3cB2A4G2c4B2 | 
[V:3] z18 | 
[V:4] B,,4G,,2D,3C,B,,2A,,4G,,2 | 
[V:1] z18 | 
[V:2] A3Bc2d2c3BB4A2 | 
[V:3] z18 | 
[V:4] C,3D,E,2F,4D,2E,2C,4 | 
[V:1] B4A2G4F2B4c2 | 
[V:2] B4z2z6z6 | 
[V:3] z2z2z2B4A2G4F2 | 
[V:4] B,,4z2z6z6 | 
[V:1] d4c2A4B2c4B2 | 
[V:2] z2z2z2f4g2a4g2 | 
[V:3] B4c2d3cB2A4B2 | 
[V:4] z6z6z6 | 
[V:1] G4A2B4c2d4c2 | 
[V:2] e4f2g4f2d4e2 | 
[V:3] c3BA2G4A2B4c2 | 
[V:4] z6z6z6 | 
[V:1] A2B3AA4G2A6 | 
[V:2] f4e4d4e4z2 | 
[V:3] d4c2A2B4A6 | 
[V:4] z6z6z6 | 
[V:1] z2z2z2z2z2z2A3Bc2 | 
[V:2] e3fg2a4g2f3de2 | 
[V:3] A4B2A3Bc2d4c2 | 
[V:4] z6z6z6 | 
[V:1] d4c2B2A3GG4^F2 | 
[V:2] d3ef2g2e3dd4c2 | 
[V:3] B3GA2G2c4B2A4 | 
[V:4] z6z6z6 | 
[V:1] G4G2B3AG2F4G2 | 
[V:2] d6d4B2d4e2 | 
[V:3] G6G4G2A4B2 | 
[V:4] z6G,,4G,,2D,4G,2 | 
[V:1] A4G4F4F3GA2 | 
[V:2] f4d4d4d4e2 | 
[V:3] c4B4A4A3Bc2 | 
[V:4] F,4G,4D,4D,4C,2 | 
[V:1] B4A2G2A3GG4^F2 | 
[V:2] f3ef2d2f3ed3cd2 | 
[V:3] d4c2B2c4B2A4 | 
[V:4] B,,4F,2G,2F,4G,2D,4 | 
[V:1] G8 |]  
[V:2] B2d4d2 |]  
[V:3] G8 |]  
[V:4] G,,8 |]  



